_includes/icons/color-wallet.svg

<svg fill="#666" height="50" viewBox="0 0 48 48" width="50" xmlns="http://www.w3.org/2000/svg"><path d="m3 12v24c0 2.210938 1.789063 4 4 4h33c1 0 1-.996094 1-.996094v-27.003906z" fill="#f57c00"/><path d="m40 8h-33c-2.210937 0-4 1.789063-4 4 0 2.207031 1.789063 4 4 4h33c1 0 1 1 1 1v-8c0-.550781-.445312-1-1-1z" fill="#942a09"/><path d="m7 12v4h33c1 0 1 1.003906 1 1.003906v20.996094h2v-26z" fill="#4caf50"/><path d="m7 14v2h28.683594c-.296875-.621094-.496094-1.296875-.601563-2z" fill="#c8e6c9"/><path d="m45 23h-9c-2.210937 0-4 1.789063-4 4 0 2.210938 1.789063 4 4 4h9z" fill="#bf360c"/><path d="m38 27c0 1.105469-.894531 2-2 2s-2-.894531-2-2 .894531-2 2-2 2 .894531 2 2z" fill="#ffecb3"/></svg>

<svg xmlns="http://www.w3.org/2000/svg" viewBox="0 0 48 48" width="50" height="50" fill="#666"><path d="M 3 12 L 3 36 C 3 38.210938 4.789063 40 7 40 C 7 40 39 40 40 40 C 41 40 41 39.003906 41 39.003906 L 41 12 Z" fill="#f57c00"/><path d="M 40 8 L 7 8 C 4.789063 8 3 9.789063 3 12 C 3 14.207031 4.789063 16 7 16 C 7 16 39 16 40 16 C 41 16 41 17 41 17 L 41 9 C 41 8.449219 40.554688 8 40 8 Z" fill="#942a09"/><path d="M 7 12 L 7 16 C 14.304688 16 39.148438 16 40 16 C 41 16 41 17.003906 41 17.003906 L 41 38 L 43 38 L 43 12 Z" fill="#4caf50"/><path d="M 7 14 L 7 16 C 12.507813 16 28.050781 16 35.683594 16 C 35.386719 15.378906 35.1875 14.703125 35.082031 14 Z" fill="#c8e6c9"/><path d="M 45 23 L 36 23 C 33.789063 23 32 24.789063 32 27 C 32 29.210938 33.789063 31 36 31 L 45 31 Z" fill="#bf360c"/><path d="M 38 27 C 38 28.105469 37.105469 29 36 29 C 34.894531 29 34 28.105469 34 27 C 34 25.894531 34.894531 25 36 25 C 37.105469 25 38 25.894531 38 27 Z" fill="#ffecb3"/></svg>
